X:1
T: The Long Chase
C:
R:Reel
Q: 232
K:C
M:4/4
L:1/8
GA1/2B1/2|c2 ec Gc EG|c2 ec GE DC|c2 ec B2 dB|Ac BA G2 GA1/2B1/2|
c2 ec Gc EG|c2 ec GE DC|c2 ec B2 dB|Ac BA G2 GB1/2A1/2|
|:G2 cG gG FE|F2 BF dF ED|EF GE cE DC|G,2 B,2 CD EF|
G2 cG eG FE|F2 BF dF ED|EF GE cE DC|G,C B,D C2 GB1/2A1/2:|
c2 ec Gc EG|c2 ec GE DC|c2 ec B2 dB|Ac BA G2 GA1/2B1/2|
c2 ec Gc EG|c2 ec GE DC|c2 ec B2 dB|Ac BA G2 GB1/2A1/2|
|:G2 cG gG FE|F2 BF dF ED|EF GE cE DC|G,2 B,2 CD EF|
G2 cG eG FE|F2 BF dF ED|EF GE cE DC|1G,C B,D C2 GB1/2A1/2:|2G,C B,D C2||
